X:1
T:Ave Regina coelorum
T:William Byrd (c.1540-1623)
T:Ave Regina coelorum
T:© Choral Public Domain Library 2010
T:© Choral Public Domain Library 2010
T:© Choral Public Domain Library 2010
T:© Choral Public Domain Library 2010
T:© Choral Public Domain Library 2010
T:© Choral Public Domain Library 2010
C:William Byrd (c.1540-1623)
Z:© Choral Public Domain Library 2010
%%score [ 1 2 3 4 ]
L:1/8
M:4/4
K:C
V:1 treble nm="Alto" snm="S."
V:2 treble transpose=-12 nm="Alto" snm="T."
V:3 treble-8 transpose=-12 nm="Tenor" snm="T."
V:4 bass nm="Bass" snm="B."
V:1
 [B,e]2 |[M:4/2] G6 FE D2 E2 F2 G2 | A4 A4 c6 BA | G6 A2 B2 c2 d4- | d2 cB A2 G2 A2 B2 c3 d | %5
w: |A- * * * * * *|ve Re- gi- * *|na cœ- lo- * *||
 c2 B2 B2 AG A8 | G8 z8 | z16 | z8 d6 cd | B2 c2 d4 e6 d2 | c4 c6 B2 A4 | d4 e4 c6 A2 | %12
w: |rum,||A- * *|* * ve Do- mi-|na, Do- mi- na|An- ge- lo- *|
 B2 AG d2 c4 BA B4 | c8 A6 GA | B2 A2 A4 B6 AB | c2 B2 B4 z8 | G6 FE D2 C2 B,4 | d6 cB A2 G2 ^F4 | %18
w: |rum, Sal- * *|* * ve, Sal- * *|* * ve|ra- * * * * dix,|ra- * * * * dix,|
 z8 G4 A4 | B4 G4 z8 | z8 B4 c4 | d4 B4 A2 G2 F2 E2 | D4 z4 z8 | z8 z4 A4- | A4 A4 ^F4 D4 | %25
w: sal- ve|por- ta,|sal- ve|por- ta, por- * * *|ta,|ex|_ qua mun- do|
 d8 B4 c4- | c2 B2 B2 AG A8 | G4 B6 c2 B2 G2 | B3 c d4 A8 | z4 B8 G4 | A2 G2 G8 ^F4 | G16 | z16 | %33
w: lux est or-||ta, lux est or- *|* * * ta,|lux est|or- * * *|ta.||
 z8 z4 e4- | e2 d2 d6 c2 c4- | c4 B4 c8 | G8 F6 G2 | A6 G2 F2 G2 A2 B2 | c8 B8 | z8 z4 d4- | %40
w: Gau-|* de Vir- go glo-|* ri- o-|sa, gau- de|Vir- go glo- ri- o- *|* sa,|su-|
 d4 e4 d4 c4 | d6 c2 B4 G4 | z16 | z4 B8 c4 | B4 A4 B6 A2 | G4 E4 z8 | d8 e8 | d12 ^c4 | d6 c2 B8 | %49
w: * per om- nes|spe- ci- o- sa,||su- per|om- nes spe- ci-|o- sa,|su- per|om- nes|spe- ci- o-|
 A8 z4 A4- | A2 B2 c2 B2 A2 G2 A4- | A4 ^G4 A8 | z4 B6 c2 d4- | d2 c2 B2 A2 B2 A2 ^G2 ^F2 | %54
w: sa, va-||* * le,|va- * *||
 ^G2 A4 G2 A8 | z8 B8 | c4 c2 B2 A8 | B8 z4 E4 | F4 F2 E2 D8 | E16 | z4 E8 F4 | G4 A4 B8 | %62
w: * * * le,|O|val- de de- co-|ra, O|val- de de- co-|ra,|et pro|no- bis Chri-|
 A4 G4 c8- | c8 B8 | z16 | z4 G8 A4 | B4 c4 d8 | c4 B4 e8 | d8 A4 c4- | c4 B2 A2 G4 F2 E2 | %70
w: stum ex- o-|* ra,||et pro|no- bis Chri-|stum ex- o-|ra, ex- o-||
 D8 z4 E4- | E4 ^F4 G6 A2 | B4 A2 G2 d6 c2 | B4 A2 G2 ^F2 G2 A2 G2 | ^F8 G4 E4 | F8 E8 | %76
w: ra, et|_ pro no- bis|Chri- stum ex- o- *||* ra, ex-|o- ra,|
 z4 A4 d6 cB | A2 G2 ^F2 E2 F4 G4 | A4 D4 A6 G2 | ^F2 EF G8 F4 | !fermata!G16 |] %81
w: ex- o- * *||ra, ex- o- *||ra.|
V:2
 [^F,c]2 |[M:4/2] z16 | D6 CB, A,2 B,2 C2 D2 | E4 E4 G6 FE | D6 E2 F2 G2 A4- | A2 G^F G8 F4 | G16 | %7
w: ||A- * * * * * *|ve Re- gi- * *|na cœ- lo- * *||rum,|
 z16 | z16 | z8 G6 FG | E2 F2 G4 A6 G2 | F4 G8 ^F4 | G4 F2 E2 D8 | C8 D8- | D4 D4 D6 CD | %15
w: ||A- * *|* * ve Do- mi-|na An- ge-|lo- * * *|rum, Sal-|* ve, Sal- * *|
 E2 D2 D4 G6 FE | D2 C2 B,4 G6 FE | D2 C2 B,4 D6 CB, | A,2 G,2 ^F,4 z8 | z8 G,4 A,4 | B,4 G,4 z8 | %21
w: * * ve ra- * *|* * dix, ra- * *|* * dix, ra- * *|* * dix,|sal- ve|por- ta,|
 D4 E4 F4 D4 | F4 G4 A6 GF | E2 D2 E2 G2 ^F8- | F8 z8 | z16 | z4 D8 D4 | B,4 G,4 G8 | %28
w: sal- ve por- ta,|sal- ve por- * *|* * * * ta,|_||ex qua|mun- do lux|
 D4 ^F6 G2 F2 D2 | ^F4 G4 D4 E4 | D4 D6 CB, A,2 C2 | B,8 z4 E4- | E2 D2 D6 C2 C4- | C4 B,4 C8 | %34
w: est or- * * *|* * ta, lux|est or- * * * *|ta. Gau-|* de Vir- go glo-|* ri- o-|
 G,16 | z8 z4 F4- | F2 E2 E6 D2 D4- | D4 ^C4 D8 | C4 C2 D2 E2 F2 G2 A2 | G8 ^F8 | z4 G8 A4 | %41
w: sa,|gau-|* de Vir- go glo-|* ri- o-|sa, glo- ri- o- * * *|* sa,|su- per|
 G4 ^F4 G6 G,2 | B,2 A,B, C2 A,2 B,4 z4 | z4 G8 A4 | G4 ^F4 G6 =F2 | E4 C4 D6 C2 | B,4 G,4 G6 A2 | %47
w: om- nes spe- ci-|o- * * * * sa,|su- per|om- nes spe- ci-|o- sa, spe- ci-|o- sa, su- per|
 ^F4 D4 z4 A4- | A2 G2 G8 ^F2 E2 | ^F8 z4 =F4- | F2 G2 A2 G2 F2 E2 D2 C2 | B,2 A,2 B,4 A,8 | %52
w: om- nes spe-|* ci- o- * *|sa, va-||* * * le,|
 z8 D6 E2 | F2 E2 D2 C2 D2 C2 B,2 A,2 | B,8 A,4 A,4 | B,4 B,2 A,2 ^G,2 A,4 G,2 | A,4 E4 F4 F2 E2 | %57
w: va- *||* le, O|val- de de- co- * *|ra, O val- de de-|
 D8 C4 C4 | D4 D2 C2 B,2 A,G, D4- | D4 C4 B,8 | z4 C8 D4 | E4 ^F4 G4 D2 E2 | %62
w: co- ra, O|val- de de- co- * * *|* * ra,|et pro|no- bis Chri- stum ex-|
 F4 E2 D2 C2 B,2 A,2 B,2 | C8 z4 D4 | A4 G8 ^F4 | G4 D4 E6 F2 | G4 C4 F3 E D2 G2 | %67
w: o- * * * * * *|ra, ex-|o- * *|ra, ex- o- *|ra, ex- o- * * *|
 E2 F2 G6 G,2 C4- | C4 B,4 C4 E4- | E4 ^F4 G4 A4 | B8 A4 G4 | c8 B4 D4 | G4 F2 E2 D2 C2 B,2 CD | %73
w: |* * ra, et|_ pro no- bis|Chri- stum ex-|o- ra, ex-|o- * * * * * * *|
 E8 z4 E4 | D8 G,8 | A,4 D8 ^C4 | D8 z4 D4 | ^F2 G2 A8 D2 E2 | ^F16 | z4 B,4 D6 C2 | %80
w: ra, ex-|o- ra,|ex- o- *|ra, ex-|o- * * * *|ra,|ex- o- *|
 !fermata!B,16 |] %81
w: ra.|
V:3
 [Cf]2 |[M:4/2] z16 | z16 | z16 | z16 | z8 d6 cd | B2 c2 d4 e6 d2 | c4 f8 e4 | d2 e2 c4 B4 A2 G2 | %9
w: |||||A- * *|* * ve Do- mi-|na An- ge-|lo- * * rum, An- ge-|
 d2 c4 B2 c8 | z8 f6 e2 | d4 c2 B2 A8 | G16 | z8 ^F6 EF | G2 ^F2 F4 G8- | G4 G4 B6 dc | %16
w: lo- * * rum,|Do- mi-|na An- ge- lo-|rum,|Sal- * *|* * ve, Sal-|* ve ra- * *|
 B2 A2 G4 B6 dc | B2 A2 G4 ^F3 G AD d2- | d2 cB A4 z8 | z8 E4 ^F4 | G12 E4 | G8 A4 d4- | %22
w: * * dix, ra- * *|* * dix, ra- * * * *|* * * dix,|sal- ve|por- ta,|sal- ve por-|
 d4 c2 B2 A4 d4- | d4 ^c4 d8 | z4 A8 A4 | ^F4 D4 G6 C2 | E2 ^F2 G6 FE F4 | G8 z4 G4- | %28
w: |* * ta,|ex qua|mun- do lux est|or- * * * * *|ta, ex|
 G4 A4 ^F4 D4 | d8 B4 c4- | c2 B2 B2 AG A8 | G16 | z16 | F6 G2 A6 G2 | G6 F2 E8 | D8 A6 B2 | %36
w: _ qua mun- do|lux est or-||ta.||Gau- de Vir- go|glo- ri- o-|sa, gau- de|
 c6 G2 A4 _B4 | A8 D4 f4- | f2 e2 e6 d2 d4- | d4 ^c4 d8 | G8 z8 | z4 d8 e4 | d4 c4 d6 c2 | %43
w: Vir- go glo- ri-|o- sa, gau-|* de Vir- go glo-|* ri- o-|sa,|su- per|om- nes spe- ci-|
 B4 G4 z8 | z8 z4 B4- | B4 c4 B4 A4 | z4 B8 c4 | A8 G4 A3 G | ^F4 D4 d4 d4 | d8 A8- | A8 z8 | %51
w: o- sa,|su-|* per om- nes,|su- per|om- nes spe- ci-|o- sa, spe- ci-|o- sa,|_|
 d6 e2 f2 e2 d2 c2 | d2 c2 B2 A2 ^G2 A4 G2 | A8 z8 | z8 c8 | d4 d2 c2 B8 | A8 F4 A4- | A4 ^G4 A8 | %58
w: va- * * * * *||le,|O|val- de de- co-|ra, de- co-|* * ra,|
 D4 d4 d2 c2 B2 AG | B4 A8 ^G4 | A4 A4 c8- | c4 A4 G8 | z4 E8 F4 | G4 A4 B4 A2 G2 | c16 | B8 z8 | %66
w: O val- de de- co- * *||ra, de- co-|* * ra,|et pro|no- bis Chri- stum ex-|o-|ra,|
 z4 A8 B4 | c4 d4 e4 d2 c2 | f8 e4 c4 | e4 d2 c2 B4 z4 | B4 d8 B4 | A6 Bc d8 | z8 G6 A2 | %73
w: et pro|no- bis Chri- stum ex-|o- ra, ex-|o- * * ra,|ex- o- *|* * * ra,|et pro|
 B4 c4 d4 c2 B2 | A4 d8 ^c4 | d4 D4 A6 G2 | ^F2 E2 F8 G4 | z4 A4 d6 cB | A2 G2 ^F2 E2 D4 A4 | %79
w: no- bis Chri- stum ex-|o- * *|ra, ex- o- *|* * * ra,|ex- o- * *|* * * * ra, ex-|
 d6 cB A2 G2 A4 | !fermata!G16 |] %81
w: o- * * * * *|ra.|
V:4
 [G,,C]2 |[M:4/2] z16 | z16 | z16 | z16 | z16 | G,6 F,G, E,2 F,2 G,4 | A,6 G,2 F,4 G,4- | %8
w: ||||||A- * * * * ve|Do- mi- na An-|
 G,4 A,4 G,4 F,2 E,2 | D,8 C,8- | C,8 z8 | z16 | z16 | z8 D,8- | D,4 D,4 G,,8 | G,,8 G,,8 | %16
w: * ge- lo- * *|* rum,|_|||Sal-|* ve ra-|dix, Sal-|
 G,,8 G,,8 | G,,8 D,8 | D,8 E,4 ^F,4 | G,12 D,4 | z8 G,,4 A,,4 | B,,4 G,,4 D,8- | %22
w: ve ra-|dix, ra-|dix, sal- ve|por- ta,|sal- ve|por- ta, sal-|
 D,4 E,4 F,2 E,2 F,2 G,2 | A,8 D,8- | D,8 D,8 | D,4 B,,4 G,,4 E,4- | E,4 B,,4 D,8 | E,16 | %28
w: * ve por- * * *|* ta,|_ ex|qua mun- do lux|_ est or-|ta,|
 z4 D,8 D,4 | B,,4 G,,4 G,4 E,4 | ^F,4 G,4 D,8 | z8 E,6 F,2 | G,6 F,2 F,6 E,2 | D,8 C,4 C,4- | %34
w: ex qua|mun- do lux est|or- * ta.|Gau- de|Vir- go glo- ri-|o- sa, glo-|
 C,4 B,,4 C,8 | G,,8 z8 | z16 | z8 F,6 G,2 | A,6 G,2 G,6 F,2 | E,8 D,8 | z16 | z8 G,8- | %42
w: * ri- o-|sa,||gau- de|Vir- go glo- ri-|o- sa,||su-|
 G,4 A,4 G,4 ^F,4 | G,6 F,2 E,4 C,4 | z8 z4 G,4- | G,4 A,4 G,4 ^F,4 | G,6 F,2 E,4 C,4 | %47
w: * per om- nes|spe- ci- o- sa,|su-|* per om- nes|spe- ci- o- sa,|
 D,6 C,2 B,,4 A,,4 | B,,6 A,,2 G,,2 A,,2 B,,2 G,,2 | D,16 | z16 | z8 D,6 E,2 | %52
w: spe- ci- o- sa,|spe- ci- o- * * *|sa,||va- *|
 F,2 E,2 D,2 C,2 B,,2 A,,2 B,,4 | A,,8 z8 | E,8 F,4 F,2 E,2 | D,8 E,8 | z4 C,4 D,4 D,2 C,2 | %57
w: |le,|O val- de de-|co- ra,|O val- de de-|
 B,,8 A,,8 | z4 D,4 G,4 G,2 F,2 | E,16 | A,,16 | z16 | z4 C,8 D,4 | E,4 ^F,4 G,8 | F,4 E,4 A,8 | %65
w: co- ra,|O val- de de-|co-|ra,||et pro|no- bis Chri-|stum ex- o-|
 G,4 G,4 C6 B,A, | G,4 F,2 E,2 D,4 G,4 | A,4 G,4 C,8 | z8 A,,6 B,,2 | C,4 D,4 E,4 D,2 C,2 | %70
w: ra, ex- o- * *|* * * ra, ex-|o- * ra,|et pro|no- bis Chri- stum ex-|
 G,6 F,E, F,2 D,2 E,2 D,2 | C,2 B,,2 A,,4 G,,8- | G,,8 z4 G,,4- | G,,4 A,,4 B,,4 C,4 | %74
w: o- * * * * * *|* * * ra,|_ et|_ pro no- bis|
 D,4 C,2 B,,2 E,8 | D,8 z4 A,,4 | D,6 C,2 B,,2 A,,2 B,,2 C,2 | D,8 z4 G,,4 | D,16- | D,16 | %80
w: Chri- stum ex- o-|ra, ex-|o- * * * * *|ra, ex-|o-||
 !fermata!G,,16 |] %81
w: ra.|

